images/data.svg

<?xml version="1.0" encoding="utf-8"?>
<!-- Generated by IcoMoon.io -->
<!DOCTYPE svg PUBLIC "-//W3C//DTD SVG 1.1//EN" "http://www.w3.org/Graphics/SVG/1.1/DTD/svg11.dtd">
<svg version="1.1" xmlns="http://www.w3.org/2000/svg" xmlns:xlink="http://www.w3.org/1999/xlink" width="30" height="30" viewBox="0 0 30 30">
<g>
	<line stroke-width="1" x1="" y1="" x2="" y2="" stroke="#449FDB" opacity=""></line>
</g>
	<path d="M21.178 7h-10.883l2.099 2.22h7.825c0.431 0 0.781 0.349 0.781 0.78v7.603l2 2.097v-10.883c0-1.021-0.801-1.817-1.822-1.817z" fill="#000000"></path>
	<path d="M10 21c-0.431 0-0.78-0.551-0.78-0.981v-7.756l-2.2-2.096v10.882c0 1.021 0.828 1.849 1.849 1.849h10.882l-2.099-1.898h-7.652z" fill="#000000"></path>
</svg>

<?xml version="1.0" encoding="UTF-8" standalone="no"?>
<!-- Created with Inkscape (http://www.inkscape.org/) -->

<svg
   xmlns:dc="http://purl.org/dc/elements/1.1/"
   xmlns:cc="http://creativecommons.org/ns#"
   xmlns:rdf="http://www.w3.org/1999/02/22-rdf-syntax-ns#"
   xmlns:svg="http://www.w3.org/2000/svg"
   xmlns="http://www.w3.org/2000/svg"
   xmlns:inkscape="http://www.inkscape.org/namespaces/inkscape"
   version="1.1"
   width="30"
   height="30"
   viewBox="0 0 30 30"
   id="svg2">
  <metadata
     id="metadata10">
    <rdf:RDF>
      <cc:Work
         rdf:about="">
        <dc:format>image/svg+xml</dc:format>
        <dc:type
           rdf:resource="http://purl.org/dc/dcmitype/StillImage" />
      </cc:Work>
    </rdf:RDF>
  </metadata>
  <defs
     id="defs8" />
  <path
     d="M 21.178,7 H 10.295 l 2.1,2.22 h 7.824 c 0.43,0 0.78,0.35 0.78,0.78 v 7.603 l 2,2.097 V 8.817 C 23,7.797 22.2,7 21.17,7 z M 10,21 C 9.57,21 9.22,20.45 9.22,20.02 V 12.263 L 7.02,10.167 V 21.05 c 0,1.02 0.828,1.848 1.85,1.848 H 19.75 L 17.653,21 H 10 z"
     inkscape:connector-curvature="0"
     id="path4" />
</svg>
